TV/Source/Nova 2.svg

<svg height="24.112093mm" viewBox="0 0 126.72094 24.112284" width="126.72094mm" xmlns="http://www.w3.org/2000/svg"><g fill="#2e3e96"><path d="m0 0h .772v-.404c.214.285.552.463.962.463.736 0 1.24-.534 1.24-1.264v-1.853h-.771v1.716c0 .41-.297.701-.713.701-.415 0-.718-.291-.718-.701v-1.716h-.772z" transform="matrix(7.5682 0 0 -7.5682 -.00063 .529774)"/><path d="m0 0c .475 0 .837.38.837.885 0 .498-.362.878-.837.878s-.831-.38-.831-.878c0-.505.356-.885.831-.885m0 2.47c.926 0 1.633-.689 1.633-1.585 0-.903-.707-1.591-1.633-1.591s-1.633.688-1.633 1.591c0 .896.707 1.585 1.633 1.585" transform="matrix(7.5682 0 0 -7.5682 38.21878 18.769136)"/><path d="m0 0h .831l.843-2.25.849 2.25h.778l-1.217-3.058h-.867z" transform="matrix(7.5682 0 0 -7.5682 50.403582 .529774)"/><path d="m0 0c .475 0 .837.38.837.885 0 .498-.362.878-.837.878s-.831-.38-.831-.878c0-.505.356-.885.831-.885m.837-.267c-.243-.273-.582-.439-.991-.439-.837 0-1.479.688-1.479 1.591 0 .896.642 1.585 1.479 1.585.409 0 .748-.167.991-.446v.386h.772v-3.057h-.772z" transform="matrix(7.5682 0 0 -7.5682 87.639126 18.769136)"/></g><path d="m0 0 1.278 1.063c.115.097.211.224.211.4 0 .167-.109.312-.369.312-.215 0-.369-.127-.369-.404l-.773.088c.044.658.479 1.001 1.142 1.001.672 0 1.143-.364 1.143-.975 0-.4-.233-.729-.514-.949l-.668-.536h1.203v-.659h-2.284z" fill="#50c5d5" transform="matrix(7.5682 0 0 -7.5682 109.43555 18.617772)"/></svg>

<?xml version="1.0" encoding="UTF-8" standalone="no"?>
<svg
   xmlns:dc="http://purl.org/dc/elements/1.1/"
   xmlns:cc="http://creativecommons.org/ns#"
   xmlns:rdf="http://www.w3.org/1999/02/22-rdf-syntax-ns#"
   xmlns:svg="http://www.w3.org/2000/svg"
   xmlns="http://www.w3.org/2000/svg"
   xmlns:sodipodi="http://sodipodi.sourceforge.net/DTD/sodipodi-0.dtd"
   xmlns:inkscape="http://www.inkscape.org/namespaces/inkscape"
   width="126.72094mm"
   height="24.112093mm"
   version="1.1"
   viewBox="0 0 126.72094 24.112284"
   id="svg42"
   sodipodi:docname="Nova 2 - Dark.svg"
   inkscape:version="0.92.0 r15299">
  <metadata
     id="metadata46">
    <rdf:RDF>
      <cc:Work
         rdf:about="">
        <dc:format>image/svg+xml</dc:format>
        <dc:type
           rdf:resource="http://purl.org/dc/dcmitype/StillImage" />
        <dc:title></dc:title>
      </cc:Work>
    </rdf:RDF>
  </metadata>
  <sodipodi:namedview
     pagecolor="#ffffff"
     bordercolor="#666666"
     borderopacity="1"
     objecttolerance="10"
     gridtolerance="10"
     guidetolerance="10"
     inkscape:pageopacity="0"
     inkscape:pageshadow="2"
     inkscape:window-width="1920"
     inkscape:window-height="1017"
     id="namedview44"
     showgrid="false"
     fit-margin-top="0"
     fit-margin-left="0"
     fit-margin-right="0"
     fit-margin-bottom="0"
     inkscape:zoom="0.47333333"
     inkscape:cx="239.63275"
     inkscape:cy="45.404595"
     inkscape:window-x="-8"
     inkscape:window-y="-8"
     inkscape:window-maximized="1"
     inkscape:current-layer="svg42" />
  <defs
     id="defs8">
    <clipPath
       id="clipPath87613">
      <path
         d="m 289.4,589.58 h 20.976 v 8.273 H 289.4 Z"
         id="path2"
         inkscape:connector-curvature="0" />
    </clipPath>
    <clipPath
       id="clipPath87603">
      <path
         d="m 289.4,586.2 h 20.976 v 15.025 H 289.4 Z"
         id="path5"
         inkscape:connector-curvature="0" />
    </clipPath>
  </defs>
  <g
     id="g18"
     transform="matrix(7.5682,0,0,-7.5682,-6.3027572e-4,0.529774)"
     style="fill:#2e3e96;fill-opacity:1">
    <path
       style="fill:#2e3e96;fill-opacity:1"
       inkscape:connector-curvature="0"
       id="path16"
       d="m 0,0 h 0.772 v -0.404 c 0.214,0.285 0.552,0.463 0.962,0.463 0.736,0 1.24,-0.534 1.24,-1.264 V -3.058 H 2.203 v 1.716 c 0,0.41 -0.297,0.701 -0.713,0.701 -0.415,0 -0.718,-0.291 -0.718,-0.701 V -3.058 H 0 Z" />
  </g>
  <g
     id="g22"
     transform="matrix(7.5682,0,0,-7.5682,38.21878,18.769136)"
     style="fill:#2e3e96;fill-opacity:1">
    <path
       style="fill:#2e3e96;fill-opacity:1"
       inkscape:connector-curvature="0"
       id="path20"
       d="M 0,0 C 0.475,0 0.837,0.38 0.837,0.885 0.837,1.383 0.475,1.763 0,1.763 -0.475,1.763 -0.831,1.383 -0.831,0.885 -0.831,0.38 -0.475,0 0,0 m 0,2.47 c 0.926,0 1.633,-0.689 1.633,-1.585 0,-0.903 -0.707,-1.591 -1.633,-1.591 -0.926,0 -1.633,0.688 -1.633,1.591 0,0.896 0.707,1.585 1.633,1.585" />
  </g>
  <g
     id="g26"
     transform="matrix(7.5682,0,0,-7.5682,50.403582,0.529774)"
     style="fill:#2e3e96;fill-opacity:1">
    <path
       style="fill:#2e3e96;fill-opacity:1"
       inkscape:connector-curvature="0"
       id="path24"
       d="M 0,0 H 0.831 L 1.674,-2.25 2.523,0 H 3.301 L 2.084,-3.058 H 1.217 Z" />
  </g>
  <g
     id="g30"
     transform="matrix(7.5682,0,0,-7.5682,87.639126,18.769136)"
     style="fill:#2e3e96;fill-opacity:1">
    <path
       style="fill:#2e3e96;fill-opacity:1"
       inkscape:connector-curvature="0"
       id="path28"
       d="M 0,0 C 0.475,0 0.837,0.38 0.837,0.885 0.837,1.383 0.475,1.763 0,1.763 -0.475,1.763 -0.831,1.383 -0.831,0.885 -0.831,0.38 -0.475,0 0,0 M 0.837,-0.267 C 0.594,-0.54 0.255,-0.706 -0.154,-0.706 c -0.837,0 -1.479,0.688 -1.479,1.591 0,0.896 0.642,1.585 1.479,1.585 0.409,0 0.748,-0.167 0.991,-0.446 V 2.41 H 1.609 V -0.647 H 0.837 Z" />
  </g>
  <g
     id="g34"
     transform="matrix(7.5682,0,0,-7.5682,109.43555,18.617772)">
    <path
       style="fill:#50c5d5"
       inkscape:connector-curvature="0"
       id="path32"
       d="M 0,0 1.278,1.063 C 1.393,1.16 1.489,1.287 1.489,1.463 1.489,1.63 1.38,1.775 1.12,1.775 0.905,1.775 0.751,1.648 0.751,1.371 L -0.022,1.459 C 0.022,2.117 0.457,2.46 1.12,2.46 1.792,2.46 2.263,2.096 2.263,1.485 2.263,1.085 2.03,0.756 1.749,0.536 L 1.081,0 H 2.284 V -0.659 H 0 Z" />
  </g>
</svg>
